symbolic/24x24/apps/ristretto.svg

<svg xmlns="http://www.w3.org/2000/svg" width="24" height="24" version="1.1">
 <circle style="fill:#3f3f3f" cx="12.5" cy="11.5" r="10"/>
 <circle style="opacity:0.2" cx="12.5" cy="12" r="10.5"/>
 <path style="fill:#0277bd" d="M 2.3527344,8.8524413 A 10.5,10.5 0 0 0 2,11.5 10.5,10.5 0 0 0 12.5,22 10.5,10.5 0 0 0 15.153711,21.652392 Z"/>
 <path style="fill:#558b2f" d="M 5.0720703,4.0884765 A 10.5,10.5 0 0 0 2.3527344,8.8524413 L 15.153711,21.652392 a 10.5,10.5 0 0 0 4.758837,-2.724462 z"/>
 <path style="fill:#f9a825" d="M 9.8206541,1.3537597 A 10.5,10.5 0 0 0 5.0720703,4.0884765 L 19.912548,18.92793 a 10.5,10.5 0 0 0 2.728565,-4.753711 z"/>
 <path style="fill:#ef6c00" d="M 12.5,1 A 10.5,10.5 0 0 0 9.8206541,1.3537597 L 22.641113,14.174219 A 10.5,10.5 0 0 0 23,11.5 10.5,10.5 0 0 0 12.5,1 Z"/>
 <path style="opacity:0.2" d="m 12.5,7.5 a 5.5,3 0 0 0 -5.5,3 5.5,3 0 0 0 0.024415,0.258789 l -0.00195,1.345703 C 7.016779,12.166463 7,10.367104 7,11.824219 7.000206,13.781413 9.460201,17.376741 12.5,17.5 14.173937,17.432124 15.669372,16.309553 16.677734,14.989258 17.030904,15.303022 17.490424,15.5 18,15.5 c 1.104569,0 2,-0.89543 2,-2 0,-1.104569 -0.895431,-2 -2,-2 l -0.002,0.002 c -0.0017,-0.256959 -0.0037,-0.228224 -0.0078,0.0078 l -0.01367,0.01367 -0.001,-0.759765 A 5.5,3 0 0 0 18,10.5 5.5,3 0 0 0 12.5,7.5 Z m 5.5,5 c 0.552284,0 1,0.447715 1,1 0,0.552285 -0.447716,1 -1,1 -0.305407,0 -0.575363,-0.139676 -0.758789,-0.355469 0.325149,-0.562476 0.555861,-1.125619 0.670898,-1.635742 C 17.941585,12.506175 17.969844,12.5 18,12.5 Z"/>
 <path style="fill:#ffffff" d="m 7.024414,10 -0.00195,1.604188 C 7.016782,11.666158 7,9.867073 7,11.324188 7.000206,13.281382 9.460201,16.876741 12.5,17 c 3.039799,-0.123259 5.499794,-3.718618 5.5,-5.675812 0,-1.457115 -0.01678,0.34197 -0.02246,0.28 L 17.97559,10 H 12.5 Z"/>
 <ellipse style="fill:#4a342a" cx="12.5" cy="10" rx="5.5" ry="3"/>
 <path style="fill:#ffffff" d="m 18,11.000004 -2,2 c 0,1.10457 0.89543,2 2,2 1.104569,0 2,-0.89543 2,-2 0,-1.104569 -0.895431,-2 -2,-2 z m 0,1 c 0.552284,0 1,0.447716 1,1 0,0.552285 -0.447716,1 -1,1 -0.552285,0 -1,-0.447715 -1,-1 0,-0.552284 0.447715,-1 1,-1 z"/>
 <path style="opacity:0.2;fill:#ffffff" d="M 12.5,1.000125 A 10.5,10.5 0 0 0 2,11.500125 10.5,10.5 0 0 0 2.0097656,11.797 10.5,10.5 0 0 1 12.5,1.500125 10.5,10.5 0 0 1 22.990234,11.70325 10.5,10.5 0 0 0 23,11.500125 a 10.5,10.5 0 0 0 -10.5,-10.5 z"/>
</svg>

<svg xmlns="http://www.w3.org/2000/svg" width="24" height="24"><circle style="fill:#3f3f3f" cx="12.5" cy="11.5" r="10"/><circle style="opacity:.2" cx="12.5" cy="12" r="10.5"/><path style="fill:#0277bd" d="M2.353 8.852A10.5 10.5 0 0 0 2 11.5 10.5 10.5 0 0 0 12.5 22a10.5 10.5 0 0 0 2.654-.348z"/><path style="fill:#558b2f" d="M5.072 4.088a10.5 10.5 0 0 0-2.72 4.764l12.802 12.8a10.5 10.5 0 0 0 4.759-2.724z"/><path style="fill:#f9a825" d="M9.82 1.354a10.5 10.5 0 0 0-4.748 2.734l14.84 14.84a10.5 10.5 0 0 0 2.73-4.754z"/><path style="fill:#ef6c00" d="M12.5 1a10.5 10.5 0 0 0-2.68.354l12.821 12.82A10.5 10.5 0 0 0 23 11.5 10.5 10.5 0 0 0 12.5 1z"/><path style="opacity:.2" d="M12.5 7.5a5.5 3 0 0 0-5.5 3 5.5 3 0 0 0 .024.259l-.002 1.345c-.005.062-.022-1.737-.022-.28 0 1.957 2.46 5.553 5.5 5.676 1.674-.068 3.17-1.19 4.178-2.51.353.313.812.51 1.322.51a2 2 0 1 0 0-4l-.002.002c-.002-.257-.004-.228-.008.008l-.013.013-.001-.76A5.5 3 0 0 0 18 10.5a5.5 3 0 0 0-5.5-3zm5.5 5a1 1 0 0 1 0 2 .993.993 0 0 1-.759-.355c.325-.563.556-1.126.671-1.636.03-.003.058-.009.088-.009z"/><path style="fill:#fff" d="m7.024 10-.002 1.604c-.005.062-.022-1.737-.022-.28 0 1.957 2.46 5.553 5.5 5.676 3.04-.123 5.5-3.719 5.5-5.676 0-1.457-.017.342-.022.28L17.976 10H12.5z"/><ellipse style="fill:#4a342a" cx="12.5" cy="10" rx="5.5" ry="3"/><path style="fill:#fff" d="m18 11-2 2a2 2 0 1 0 2-2zm0 1a1 1 0 1 1 0 2 1 1 0 0 1 0-2z"/><path style="opacity:.2;fill:#fff" d="M12.5 1A10.5 10.5 0 0 0 2 11.5a10.5 10.5 0 0 0 .01.297A10.5 10.5 0 0 1 12.5 1.5a10.5 10.5 0 0 1 10.49 10.203A10.5 10.5 0 0 0 23 11.5 10.5 10.5 0 0 0 12.5 1z"/></svg>
